X:76
T:I Found a New baby
C:Jethro Burns
N:Tabledited by Mike Stangeland
L:1/8
Q:1/4=209
M:4/4
K:C
z2 ^de zd e2 | "A"c2 A6 | "Cdim7"z3^d "Bdim7"ed ec | "A"zA ^DE "Bdim7"C2 CA, | 
"Cdim7"z3^d "Bdim7"ed ea | "D7"ze z6 | "G7"ag2^d =dc A^D | "C"E^G Ac BA G=G | 
"E7"^G2 ^de zd ec | "A"zA ^DE "Bdim7"CA,2A, | "Cdim7"z3^d "Bdim7"ed ec | "A"zA ^DE "Bdim7"zD E2 | 
"Cdim7"A,4 "Bdim7"z^d ed | "D7"ea e^d ea ed | "G7"ea e^d =dc A^D | "C"EG c6 | 
^DE Gc zg ^g=g | "E7"^g=g ^f=f ^f=f e^d | e^d =d^c dB =cB | "Am"cB cd ea e^d | 
dc AE2f ^f=f | "D7"^f=f e^d ed =d^c | ^cd c=c2A _B=B | "G7"gB _BA "F#7"fA ^G=G | 
"F7"eG ^F=F "E7"dc Bd | (3"Am"cdc Bd (3BcB AE | (3^DED =DC (3B,CB, A,B, | CD ^DE Ac ea | 
z3^d ed ea | "D7"ze7/1 | "G7"ag e^d =dc A^D | "C"EG Ac BA ^G=G | "E7"^GB AG AB ce | 
"A"ac e^g "Bdim7"z=g2e | "Cdim7"^fc e=f "Bdim7"ze2^d | "A"ea e^d "Bdim7"=dc A^D | 
"Cdim7"Ec A^D "Bdim7"E3=D | "D7"EF ^FA ce dc | "G7"BA G^F =FD ^DE | "C"Gc BA ^G=G ^G=G | 
"E7"B3f z3^d | "A"e2 a2 "Bdim7"^g2 e=g | "Cdim7"e^f z2 "Bdim7"=f3e | "A"za ^g2 "Bdim7"=g3^f | 
"Cdim7"f2 e2 "Bdim7"^de cA | "D7"^FA ce4^c | "G7"dB G^F =FG Bd | "C"cG EC B,C EG | 
c6 e^f | "E7"^gb ge dg d^c | Bd BA ^G2 ef | "Am"^f2 c2 c2 e=f | ^f2 c2 c2 e=f | 
"D7"^fa fd eg e^c | d^f d^c =cA _B=B | "G7"gB _BA "F#7"^fA ^G=G | "F7"eG ^FE "E7"dc B^G | 
"Am"A2 B2 A2 B2 | c2 e2 ^f2 e2 | a^g zb za zg | zb za zg z2 | "D7"z3c z3^d | "G7"zc a^d =dc A^D | 
"C"EG Ac BA ^GB | "E7"A3{^D}E2{D}E zD | "A"EA Bc (3"Bdim7"BcB Ac | (3"Cdim7"BcB AB2[^fc] z^D | 
"A"EA Bc (3"Bdim7"BcB Ac | (3"Cdim7"BcB AB2[^fc] zD | EF ^FA ce dc | "G7"BA G^F =FD ^DE | 
"C"CA, A,A, A,A, A,[EA,] | "E7"z[EB,] z4 z^D | "A"EA Bc (3"Bdim7"BcB Ac | (3"Cdim7"BcB AB2[^fc] zD | 
"A"EA Bc (3"Bdim7"BcB Ac | (3"Cdim7"BcB AB2[^fc] zD | EF ^FA ce dc | "G7"BA G^F =FD (3^DEG | 
"C"cG E2 ^FG AF | Gc4^D DD | "E7"zE ^F^G AB ^cd | ef Ad fe dc | "Am"BA3 ^GA _Bc | 
de ae cA E2 | (3"D7"DE^F d2 (3DEF c2 | (3DE^F B2 (3DEF A2 | (3"G7"GAB g2 (3"F#7"GAB f2 | 
(3"F7"GAB ef "E7"ed cB | "Am"A^G AB cB cd | ea3 e4 | ca3 c2 B2 | A3G G3A | "D7"z[ac^FA,] z2 [a4c4F4A,4] | 
"G7"z[bdGB,] z2 [b4d4G4B,4] | "C"z[c'eAC] z2 [c'4e4A4C4] | [c'3e3A3C3][c'eAC] z4 | 


